X:103
T:Lark in the Morning, The    
B:CRE1.027 (Buachaillin Bui)
F:file ID: cre.1/103lark_m
S:Tommy Potts
N:1:Gaelic = "Little Yellow Boy". Check out Paul de Grae's translation
of Breathnach's tune notes for the full (convoluted) story!
N:2:No repeats in CRE.
M:6/8
Q:160
R:jig
K:D
dB||AFA AFA|BGB BdB|AFA AFA|gf/e/d BdB|
AFA AFA|BGB BAB|def afe|fdB BAB:|
%B
dfg a3|baf gfe|def afe|fdB BAB|
dfg a3|baf a2f|g3 faf|edB BAB:|
%C
def fef|fef fef|def fef|edB BAB|
def fef|fef fed|faf gfe|fdB BAB:|
%D
Add fdd|edd fdd|Add fdd|edB BAB|
Add fdd|edd fdd|faf gfe|fdB BAB:|

%%%

